X: 41710
T: Valley Of Knockanure, The
R: waltz
M: 3/4
K: Bminor
de|f4 f2|e2 f2 e2|d4 B2|e2 d2 B2|A2 F3 A|B4 B2|B6-|B4 A2|
B2 A2 B2|d4 e2|f2 e2 f2|a4 f2|e3 f e2|d4 e2|f6-|f4 A2|
B2 A2 B2|d4 e2|f2 e2 f2|a4 f2|e3 f e2|d4 e2|f6-|f4 de|
f4 f2|e2 f2 e2|d4 B2|e2 d2 B2|A2 F2 A2|B4 B2|B6-|B4||

